frontend/src/assets/icons/publishing.svg

<svg width="current" height="current" viewBox="0 0 24 24" fill="none" xmlns="http://www.w3.org/2000/svg">
<path fill-rule="evenodd" clip-rule="evenodd" d="M19.6495 0.799565C18.4834 -0.72981 16.0093 0.0814259 16.0093 1.99313V3.91272C12.2371 3.86807 9.65665 5.16473 7.9378 6.97554C6.10034 8.9113 5.34458 11.3314 5.02788 12.9862C4.86954 13.8135 5.41223 14.4138 5.98257 14.6211C6.52743 14.8191 7.25549 14.7343 7.74136 14.1789C9.12036 12.6027 11.7995 10.4028 16.0093 10.5464V13.0069C16.0093 14.9186 18.4834 15.7298 19.6495 14.2004L23.3933 9.29034C24.2022 8.2294 24.2022 6.7706 23.3933 5.70966L19.6495 0.799565ZM7.48201 11.6095C9.28721 10.0341 11.8785 8.55568 16.0093 8.55568H17.0207C17.5792 8.55568 18.0319 9.00103 18.0319 9.55037L18.0317 13.0069L21.7754 8.09678C22.0451 7.74313 22.0451 7.25687 21.7754 6.90322L18.0317 1.99313V4.90738C18.0317 5.4567 17.579 5.90201 17.0205 5.90201H16.0093C11.4593 5.90201 9.41596 8.33314 9.41596 8.33314C8.47524 9.32418 7.86984 10.502 7.48201 11.6095Z" fill="#0F0F0F"/>
<path d="M7 1.00391H4C2.34315 1.00391 1 2.34705 1 4.00391V20.0039C1 21.6608 2.34315 23.0039 4 23.0039H20C21.6569 23.0039 23 21.6608 23 20.0039V17.0039C23 16.4516 22.5523 16.0039 22 16.0039C21.4477 16.0039 21 16.4516 21 17.0039V20.0039C21 20.5562 20.5523 21.0039 20 21.0039H4C3.44772 21.0039 3 20.5562 3 20.0039V4.00391C3 3.45162 3.44772 3.00391 4 3.00391H7C7.55228 3.00391 8 2.55619 8 2.00391C8 1.45162 7.55228 1.00391 7 1.00391Z" fill="#0F0F0F"/>
</svg>

<svg width="current" height="current" viewBox="0 0 24 24" fill="none" xmlns="http://www.w3.org/2000/svg"><path fill-rule="evenodd" clip-rule="evenodd" d="M19.65.8C18.482-.73 16.01.08 16.01 1.993v1.92c-3.773-.045-6.353 1.252-8.072 3.063-1.838 1.935-2.593 4.355-2.91 6.01-.158.827.384 1.428.955 1.635.544.198 1.272.113 1.758-.442 1.38-1.576 4.059-3.776 8.268-3.633v2.46c0 1.913 2.474 2.724 3.64 1.194l3.744-4.91a2.945 2.945 0 0 0 0-3.58L19.65.8zM7.482 11.61c1.805-1.576 4.397-3.054 8.527-3.054h1.012c.558 0 1.01.445 1.01.994v3.457l3.744-4.91a.981.981 0 0 0 0-1.194l-3.743-4.91v2.914c0 .55-.453.995-1.012.995h-1.01c-4.55 0-6.594 2.431-6.594 2.431-.94.991-1.546 2.169-1.934 3.277z" fill="#0F0F0F"/><path d="M7 1.004H4a3 3 0 0 0-3 3v16a3 3 0 0 0 3 3h16a3 3 0 0 0 3-3v-3a1 1 0 1 0-2 0v3a1 1 0 0 1-1 1H4a1 1 0 0 1-1-1v-16a1 1 0 0 1 1-1h3a1 1 0 0 0 0-2z" fill="#0F0F0F"/></svg>
